X:28
T:Paddy Scanlon's / Cronin's Kitchen / Kerry Cow Polkas
R:polka
Z:Julie Ross
M:C|
K:G
L:1/8
"Paddy Scanlon's"
GB B/c/B/A/ FA AD|G>ABc d2cA|GB B/c/B/A/ FAAB|1 cAFA G2GD|2 cAFA G2Bd :|
g2fe fAA>B|cdef g2fe|dgfe fAAB|1 cd/c/BA G2Bd|2 cd/c/BA G2G2 :||
K:G
"Cronin's Kitchen"
AB cd|ef g2|a3/2g/ ed|B3/2A/ G2|A3/2B/ cd|ef ge|ag/e/ dB|A2 A2:|
|:ag ed|ef g2|ag ed|BA G2|A3/2B/ cd|ef ge|ag/e/ dB|A2 A2:|
K:D
"Peata Beag do Mháthair aka The Kerry Cow"
A>BAG FAd2|G>AGF EFGE|A>BAG FAd>d:|1 cAGE DD:|2 cAGE D2DF/A/|
|:d>ded cAAd/A/|BGGA BAAB/c/|dc/d/ed cAA>B|1 c/B/AGE D2D2F/A/:|2 c/B/AGE D2D2 ||
